icons/1_Primary/Coursera.svg

<svg width="1024" height="1024" viewBox="0 0 1024 1024" fill="none" xmlns="http://www.w3.org/2000/svg">
<g clip-path="url(#clip0_2_1890)">
<path d="M512 1024C794.77 1024 1024 794.77 1024 512C1024 229.23 794.77 0 512 0C229.23 0 0 229.23 0 512C0 794.77 229.23 1024 512 1024Z" fill="#9ABEFF"/>
<path d="M128 511.92C128 482.13 152.35 458.2 182.8 458.2C191.956 458.136 200.983 460.351 209.07 464.645C217.156 468.94 224.046 475.179 229.12 482.8L206.29 496C203.648 492.225 200.132 489.146 196.041 487.025C191.951 484.904 187.408 483.804 182.8 483.82C167.14 483.82 154.31 496.87 154.31 511.88C154.31 526.89 167.14 540 182.8 540C187.625 540.031 192.377 538.825 196.603 536.496C200.829 534.168 204.388 530.795 206.94 526.7L229.54 540.18C224.528 548.024 217.611 554.472 209.435 558.922C201.259 563.372 192.089 565.68 182.78 565.63C152.35 565.64 128 541.26 128 511.92ZM234.2 511.92C234.2 482.34 258.55 458.42 289 458.42C319.66 458.42 344 482.35 344 511.92C344 541.28 319.64 565.64 289 565.64C258.56 565.64 234.2 541.26 234.2 511.92ZM317.71 511.92C317.71 497.13 304.88 484.08 289 484.08C273.34 484.08 260.51 497.13 260.51 511.92C260.51 526.92 273.34 539.98 289 539.98C304.91 540 317.71 526.93 317.71 511.92ZM786.83 512.79C786.83 480.39 813.14 458.42 837.07 458.42C853.38 458.42 862.73 463.42 869.07 472.99L871.58 460.36H896V563.68H871.54L868.38 553C861.21 560.83 852.28 565.63 837.07 565.63C813.58 565.64 786.83 545 786.83 512.79ZM870.34 512.57C870.395 508.772 869.692 505.001 868.273 501.477C866.855 497.954 864.748 494.748 862.076 492.048C859.404 489.348 856.221 487.207 852.713 485.751C849.205 484.295 845.441 483.553 841.643 483.567C837.844 483.582 834.087 484.353 830.59 485.836C827.093 487.319 823.927 489.485 821.276 492.205C818.625 494.926 816.543 498.147 815.151 501.682C813.759 505.216 813.086 508.993 813.17 512.79C813.17 527.14 826 539.97 841.66 539.97C857.51 540 870.34 527.15 870.34 512.58V512.57ZM756.77 472.34V460.34H730V563.68H756.75V508C756.75 491.25 765.02 482.56 779.35 482.56C780.35 482.56 781.2 482.63 782.09 482.71L787.09 457.77C773.13 457.86 763 462.64 756.77 472.34ZM488 472.34V460.34L461.25 460.4L461.48 563.69L488.23 563.63L488.09 508C488.09 491.26 496.3 482.54 510.65 482.51C511.565 482.512 512.48 482.562 513.39 482.66L518.32 457.66C504.35 457.83 494.24 462.63 488 472.35V472.34ZM353.29 523.66V460.38H380V520.38C380 533.64 387.39 541.47 400.22 541.47C414.57 541.47 422.82 532.77 422.82 516.02V460.38H449.57V563.68H422.88V551.68C416.58 561.47 406.35 566.25 392.22 566.25C368.3 566.29 353.29 548.89 353.29 523.66ZM613.73 512C613.79 483.07 634.49 458.32 667.33 458.38C697.78 458.44 719.26 482.83 719.19 511.57C719.197 514.41 718.976 517.246 718.53 520.05L639.81 519.9C642.81 532.3 653.03 541.23 668.48 541.27C677.83 541.27 687.84 537.83 693.94 530.01L712.18 544.64C702.8 557.89 686.25 565.64 668.65 565.64C637.56 565.59 613.68 542.27 613.73 512ZM692.26 501.27C690.76 490.83 679.9 482.76 667.07 482.74C661.293 482.637 655.632 484.365 650.898 487.678C646.164 490.99 642.601 495.717 640.72 501.18L692.26 501.27ZM518.48 541.16L542.25 528.71C546.18 537.23 554.04 542.25 565.17 542.25C575.43 542.25 579.36 538.98 579.36 534.39C579.36 517.77 523.04 527.84 523.04 489.85C523.04 468.85 541.38 457.77 564.04 457.77C581.29 457.77 596.56 465.41 604.86 479.6L581.3 492.07C577.81 485.07 571.3 481.15 562.96 481.15C554.89 481.15 550.96 483.99 550.96 488.79C550.96 504.95 607.28 494.69 607.28 533.33C607.28 553.41 590.91 565.63 564.5 565.63C542 565.61 526.33 558.19 518.48 541.16ZM128 511.92C128 482.13 152.35 458.2 182.8 458.2C191.956 458.136 200.983 460.351 209.07 464.645C217.156 468.94 224.046 475.179 229.12 482.8L206.29 496C203.648 492.225 200.132 489.146 196.041 487.025C191.951 484.904 187.408 483.804 182.8 483.82C167.14 483.82 154.31 496.87 154.31 511.88C154.31 526.89 167.14 540 182.8 540C187.625 540.031 192.377 538.825 196.603 536.496C200.829 534.168 204.388 530.795 206.94 526.7L229.54 540.18C224.528 548.024 217.611 554.472 209.435 558.922C201.259 563.372 192.089 565.68 182.78 565.63C152.35 565.64 128 541.26 128 511.92Z" fill="white"/>
</g>
<defs>
<clipPath id="clip0_2_1890">
<rect width="1024" height="1024" fill="white"/>
</clipPath>
</defs>
</svg>

<svg width="1024" height="1024" fill="none" xmlns="http://www.w3.org/2000/svg"><g clip-path="url(#a)"><path d="M512 1024c282.77 0 512-229.23 512-512S794.77 0 512 0 0 229.23 0 512s229.23 512 512 512Z" fill="#9ABEFF"/><path d="M128 511.92c0-29.79 24.35-53.72 54.8-53.72a55.192 55.192 0 0 1 26.27 6.445 55.19 55.19 0 0 1 20.05 18.155L206.29 496a28.546 28.546 0 0 0-23.49-12.18c-15.66 0-28.49 13.05-28.49 28.06 0 15.01 12.83 28.12 28.49 28.12a28.231 28.231 0 0 0 24.14-13.3l22.6 13.48a55.142 55.142 0 0 1-46.76 25.45c-30.43.01-54.78-24.37-54.78-53.71Zm106.2 0c0-29.58 24.35-53.5 54.8-53.5 30.66 0 55 23.93 55 53.5 0 29.36-24.36 53.72-55 53.72-30.44 0-54.8-24.38-54.8-53.72Zm83.51 0c0-14.79-12.83-27.84-28.71-27.84-15.66 0-28.49 13.05-28.49 27.84 0 15 12.83 28.06 28.49 28.06 15.91.02 28.71-13.05 28.71-28.06Zm469.12.87c0-32.4 26.31-54.37 50.24-54.37 16.31 0 25.66 5 32 14.57l2.51-12.63H896v103.32h-24.46L868.38 553c-7.17 7.83-16.1 12.63-31.31 12.63-23.49.01-50.24-20.63-50.24-52.84Zm83.51-.22a28.59 28.59 0 1 0-57.17.22c0 14.35 12.83 27.18 28.49 27.18 15.85.03 28.68-12.82 28.68-27.39v-.01Zm-113.57-40.23v-12H730v103.34h26.75V508c0-16.75 8.27-25.44 22.6-25.44 1 0 1.85.07 2.74.15l5-24.94c-13.96.09-24.09 4.87-30.32 14.57Zm-268.77 0v-12l-26.75.06.23 103.29 26.75-.06-.14-55.63c0-16.74 8.21-25.46 22.56-25.49.915.002 1.83.052 2.74.15l4.93-25c-13.97.17-24.08 4.97-30.32 14.69v-.01Zm-134.71 51.32v-63.28H380v60c0 13.26 7.39 21.09 20.22 21.09 14.35 0 22.6-8.7 22.6-25.45v-55.64h26.75v103.3h-26.69v-12c-6.3 9.79-16.53 14.57-30.66 14.57-23.92.04-38.93-17.36-38.93-42.59ZM613.73 512c.06-28.93 20.76-53.68 53.6-53.62 30.45.06 51.93 24.45 51.86 53.19a53.153 53.153 0 0 1-.66 8.48l-78.72-.15c3 12.4 13.22 21.33 28.67 21.37 9.35 0 19.36-3.44 25.46-11.26l18.24 14.63c-9.38 13.25-25.93 21-43.53 21-31.09-.05-54.97-23.37-54.92-53.64Zm78.53-10.73c-1.5-10.44-12.36-18.51-25.19-18.53a27.353 27.353 0 0 0-26.35 18.44l51.54.09Zm-173.78 39.89 23.77-12.45c3.93 8.52 11.79 13.54 22.92 13.54 10.26 0 14.19-3.27 14.19-7.86 0-16.62-56.32-6.55-56.32-44.54 0-21 18.34-32.08 41-32.08 17.25 0 32.52 7.64 40.82 21.83l-23.56 12.47c-3.49-7-10-10.92-18.34-10.92-8.07 0-12 2.84-12 7.64 0 16.16 56.32 5.9 56.32 44.54 0 20.08-16.37 32.3-42.78 32.3-22.5-.02-38.17-7.44-46.02-24.47ZM128 511.92c0-29.79 24.35-53.72 54.8-53.72a55.192 55.192 0 0 1 26.27 6.445 55.19 55.19 0 0 1 20.05 18.155L206.29 496a28.546 28.546 0 0 0-23.49-12.18c-15.66 0-28.49 13.05-28.49 28.06 0 15.01 12.83 28.12 28.49 28.12a28.231 28.231 0 0 0 24.14-13.3l22.6 13.48a55.142 55.142 0 0 1-46.76 25.45c-30.43.01-54.78-24.37-54.78-53.71Z" fill="#fff"/></g><defs><clipPath id="a"><path fill="#fff" d="M0 0h1024v1024H0z"/></clipPath></defs></svg>
